X: 36779
T: Shepherd's Hey
R: reel
M: 4/4
K: Gmajor
A2c2 B4|A2c2 G4|A2c2 B2AB|c2C2 F4:|
|:A2F2 B4|A2F2 G4|A2c2 B2AB|c2C2 F4:|
F|ABcA B2B2|ABcA G2C2|ABcA B2AB|c2C2 F4:|
|:A2F2 B4|A2F2 G4|A2c2 B2AB|c2C2 F4:|
B2d2 c2c2|BcdB A2A2|BcdB ccBc|d2A2 G4:|
|:A|B2G2 c3A|B2G2 A4|BcdB cBcA|d2A2 G3:|
G|BcdB c2(3cdc|BcdB A2D2|BcdB c2Bc|d2D2 G3A:|
|:B2G2 c3A|B2G2 A3A|BcdB c2Bc|d2D2 G3A:|
D|GBdB c2c2|BcdB A2A2|GBdB c2Bc|d2D2 G4:|
|:B|d2B2 c3d/c/|B2G2 A4|GBdB c2Bc|d2ef g2a/g/f/e|
d2B2 c3d/c/|B2G2 A4|GBdB c2Bc|d2D2 G3||
C|B>cd>B c2c2|B>cd>B A2A2|B>cd>B c2Bc|d2D2 G3A:|
|:B2G2 c3A|B2G2 A4|B>cd>B c2Bc|d2D2 G3:|
A>Bc>A B2B2|A>Bc>A G2G2|A>Bc>A B2A>B|c2C2 F4:|
|:A2F2 B4|A2F2 G4|A>Bc>A B2B>G|c2C2 F4:|
|:A4F4|B4B4|A4F4|G4G4|A>Bc>A B2B>G|c2C2 F4:|
c>de>c c2c2|B>cd>B A4|c>de>c c2B>c|d2D2 G4:|
|:B2G2 c4|B2G2 A4|B>cd>B c2B>c|d2D2 G4:|
BddB e2B2|BddB A4|d2B2 AGGA|B2A2 G4||
D2A2 B2G2|d2A2 B4|d2B2 AGGA|B2A2 G4|
B2G2 c4|B2G2 A4|B2AB c2Bc|d2A2 G4||
B>de>B d2d2|B>de>B A4|c2 (3BcB A2e2|d2D2 G4||
A|B2e2 d4|B2d2 A4|c2 (3BcB A2e2|d2D2 G4||
A>Bc>A B2B2|A>Bc>A G4|A>Bc>A B2AB|c2C2 F4||
A2F2 G4|A2F2 G4|A2c2 B2d2|c2C2 F4||
A|B>cd>B c2d>c|B>cd>B A2D2|B>cd>B c2B>c|d2F2 G3:|
|:A|B2G2 c3A|B2G2 A4|B>cd>B c2B>c|d2f2 G3:|
A|BcdB c2(3cdc|BcdB A2D2|BcdB c2 Bc|1 d2 D2 G3A:|2 d2D2 G3||
|:A|B2G2 c3A|B2G2 A3A|BcdB c2 Bc|d2 D2 G>:|
G|BcdB c2c2|B2d2 A4|BcdB c2Bc|d2D2 G3:|
|:B2B2 c4|B2B2 A4|B2AB c2Bc|d2D2 G4:|
B>c|d>cB>c d2e>f|g>ag>f e2B>c|d>cB>c d2e>f|
g>ag>f e6:|:zd|
C2 (3ccc B>AG>B|d>c (3Bcd c>B (3Abc|B>AG2 A>Bc>d|
B2d2 c2c2|BcdB A2A2|BcdB ccBc|d2A2 G3||
A|B2G2 c3A|B2G2 A4|BcdB cBcA|d2A2 G4||
B2d2 cBc2|B2d2 A4|Bcd2 cBc2|d2D2 G4||
B2G2 c3A|B2G2 A4|Bcd2 {d}c2Bc|d2D2 G4||
A|BdeB d2d2|BdeB A2G2|GBB(3B/c/B/ A2e2|d2D2 G3:|
|:A|B2e2 d4|b2e2 A4|c2(3BcB A2e2|d2D2 G3:|

